content/pages/careers/perky-learning.svg

<svg height="121" viewBox="0 0 92 121" width="92" xmlns="http://www.w3.org/2000/svg"><g fill="none" fill-rule="evenodd" transform="translate(-1 1)"><path d="m47.1367576 50.5374193c-2.4254546 0-3.543394-1.3096704-3.543394-1.3096704s1.4915152-1.4019205 3.543394-1.4019205 3.358 1.4019205 3.358 1.4019205-.9325455 1.3096704-3.358 1.3096704zm-7.4115758-6.7202727c-.6579394 0-1.1541818.5884432-1.0593939 1.2425795.6007879 4.1652273 4.1748485 7.364625 8.4960606 7.364625 4.3184242 0 7.8938788-3.1993977 8.4946667-7.364625.0947878-.6541363-.4014546-1.2425795-1.059394-1.2425795z" fill="#11100d"/><path d="m71.3475333 48.1043955c-4.898303-42.7606705-34.2909091-41.62431823-34.2909091-41.62431823s-29.39121208-1.13635227-34.28951511 41.62431823c0 0-3.76921212 40.8681477 34.28951511 40.8681477 38.0587273 0 34.2909091-40.8681477 34.2909091-40.8681477z" stroke="#11100d" stroke-linecap="round" stroke-linejoin="round" stroke-width="2.5494"/><path d="m24.9565333 87.3260205.8670303 28.9692955 6.624 1.649318" stroke="#11100d" stroke-linecap="round" stroke-linejoin="round" stroke-width="2.5494"/><path d="m49.6687091 87.3260205.8670303 28.9692955 6.624 1.649318" stroke="#11100d" stroke-linecap="round" stroke-linejoin="round" stroke-width="2.5494"/><path d="m36.8243939 6.47630341s-4.1149091 23.84802269-30.17321208 25.95998859" stroke="#11100d" stroke-linecap="round" stroke-linejoin="round" stroke-width="2.5522"/><path d="m34.0910182 15.6543398s10.2273333 9.6387272 30.5913939 9.5967954" stroke="#11100d" stroke-linecap="round" stroke-linejoin="round" stroke-width="2.5522"/><path d="m40.1663636 40.1704761c-.6858181 0-1.2433939-.5576931-1.2433939-1.2467727 0-.5255454-.4265455-.9546477-.9520606-.9546477-.5255152 0-.9520606.4291023-.9520606.9546477 0 .6890796-.5561818 1.2467727-1.243394 1.2467727-.6858181 0-1.242-.5576931-1.242-1.2467727 0-1.8995114 1.541697-3.4467954 3.4374546-3.4467954s3.4388485 1.547284 3.4388485 3.4467954c0 .6890796-.5575758 1.2467727-1.243394 1.2467727" fill="#11100d"/><path d="m58.097303 40.1704761c-.6858182 0-1.2433939-.5576931-1.2433939-1.2467727 0-.5255454-.4265455-.9546477-.9520606-.9546477-.5241212 0-.9520606.4291023-.9520606.9546477 0 .6890796-.5561818 1.2467727-1.243394 1.2467727-.6858181 0-1.242-.5576931-1.242-1.2467727 0-1.8995114 1.541697-3.4467954 3.4374546-3.4467954s3.4388485 1.547284 3.4388485 3.4467954c0 .6890796-.5575758 1.2467727-1.243394 1.2467727" fill="#11100d"/><g stroke="#11100d"><path d="m36.6725939 7.18816591s-1.6769091-7.08507955-8.7595151-6.91176136" stroke-linecap="round" stroke-linejoin="round" stroke-width="2.5494"/><path d="m36.3200667 6.10506705s.6551515-2.7675 2.8756969-4.80119319" stroke-linecap="round" stroke-linejoin="round" stroke-width="2.5494"/><path d="m45.5454364 36.6270977c0 4.3119887-3.4862425 7.8091023-7.7879394 7.8091023-4.3003031 0-7.7879394-3.4971136-7.7879394-7.8091023 0-4.3119886 3.4876363-7.8091022 7.7879394-7.8091022 4.3016969 0 7.7879394 3.4971136 7.7879394 7.8091022z" stroke-linecap="round" stroke-linejoin="round" stroke-width="2.5494"/><path d="m64.9475394 36.6270977c0 4.3119887-3.4862424 7.8091023-7.7879394 7.8091023s-7.7879394-3.4971136-7.7879394-7.8091023c0-4.3119886 3.4862424-7.8091022 7.7879394-7.8091022s7.7879394 3.4971136 7.7879394 7.8091022z" stroke-linecap="round" stroke-linejoin="round" stroke-width="2.5494"/><path d="m45.5454364 36.6270977h3.2311515" stroke-linecap="round" stroke-linejoin="round" stroke-width="2.5494"/><path d="m11.375103 50.2125875v50.9038295h-8.27999997" stroke-linecap="round" stroke-linejoin="round" stroke-width="2.5494"/><path d="m5.10000606 96.7436273 6.27551514 4.3720907" stroke-linecap="round" stroke-linejoin="round" stroke-width="2.5494"/><path d="m29.969697 36.6270977h-25.07000003" stroke-linecap="round" stroke-linejoin="round" stroke-width="2.5494"/><path d="m69.216897 36.6270977h-4.2696364" stroke-linecap="round" stroke-linejoin="round" stroke-width="2.5494"/></g><path d="m23.6759212 45.4072011c0 .5367273-.4335151.9714205-.9687879.9714205-.5352727 0-.9687878-.4346932-.9687878-.9714205 0-.5367272.4335151-.9714204.9687878-.9714204.5352728 0 .9687879.4346932.9687879.9714204" fill="#11100d" opacity=".1"/><path d="m27.3952303 50.2125875c0 .7184318-.5812727 1.3012841-1.2963636 1.3012841-.7164849 0-1.2963637-.5828523-1.2963637-1.3012841s.5798788-1.2998864 1.2963637-1.2998864c.7150909 0 1.2963636.5814546 1.2963636 1.2998864" fill="#11100d" opacity=".1"/><path d="m68.379 67.9810557c0 .7184318-.5812727 1.2998863-1.2963636 1.2998863-.7164849 0-1.2977576-.5814545-1.2977576-1.2998863s.5812727-1.2998864 1.2977576-1.2998864c.7150909 0 1.2963636.5814546 1.2963636 1.2998864" fill="#11100d"/><path d="m17.4352545 62.3458386c0 .7184319-.5812727 1.2998864-1.2963636 1.2998864-.7164848 0-1.2977576-.5814545-1.2977576-1.2998864 0-.7184318.5812728-1.2998863 1.2977576-1.2998863.7150909 0 1.2963636.5814545 1.2963636 1.2998863" fill="#11100d" opacity=".1"/><path d="m40.0533152 52.7125625c0 .4989886-.4028485.9029318-.9004849.9029318s-.9004848-.4039432-.9004848-.9029318.4028484-.9029318.9004848-.9029318.9004849.4039432.9004849.9029318" fill="#11100d" opacity=".1"/><path d="m58.060503 48.1207489c0 .4989886-.4028485.9029318-.9004848.9029318-.4976364 0-.9004849-.4039432-.9004849-.9029318 0-.4989887.4028485-.9029319.9004849-.9029319.4976363 0 .9004848.4039432.9004848.9029319" fill="#11100d" opacity=".1"/><path d="m70.1176606 44.4353614c0 .8414318-.6802424 1.522125-1.518 1.522125s-1.518-.6806932-1.518-1.522125c0-.8400341.6802424-1.522125 1.518-1.522125s1.518.6820909 1.518 1.522125" fill="#11100d"/><path d="m35.1201636 22.8893955c0 .6681136-.5408484 1.2104318-1.2071515 1.2104318-.6676969 0-1.2071515-.5423182-1.2071515-1.2104318 0-.6695114.5394546-1.2104319 1.2071515-1.2104319.6663031 0 1.2071515.5409205 1.2071515 1.2104319" fill="#11100d" opacity=".1"/><path d="m71.3475333 48.1043955 20.2037576 8.2060568-19.0872121 31.0155682-13.1239394-5.4343637" stroke="#11100d" stroke-linecap="round" stroke-linejoin="round" stroke-width="2.5494"/><path d="m73.2502606 74.6626114s11.9195758 4.8179659 11.9195758-7.9810228" stroke="#11100d" stroke-linecap="round" stroke-linejoin="round" stroke-width="2.5494"/><path d="m71.4506848 44.4360602 18.4181213 7.0766932-1.6434546 3.4467955" stroke="#11100d" stroke-linecap="round" stroke-linejoin="round" stroke-width="2.5494"/><path d="m21.5482121 65.8804114h16.8429697v4.1610341l-16.8429697.0321477z" stroke="#11100d" stroke-linecap="round" stroke-linejoin="round" stroke-width="2.5494"/><path d="m25.2938667 65.3835193v-8.5457045" stroke="#11100d" stroke-linecap="round" stroke-linejoin="round" stroke-width="2.5494"/><path d="m29.3102242 65.8804114v-5.427375" stroke="#11100d" stroke-linecap="round" stroke-linejoin="round" stroke-width="2.5494"/></g></svg>

<?xml version="1.0" encoding="UTF-8"?>
<svg width="92px" height="121px" viewBox="0 0 92 121" version="1.1" xmlns="http://www.w3.org/2000/svg" xmlns:xlink="http://www.w3.org/1999/xlink">
    <!-- Generator: Sketch 52.5 (67469) - http://www.bohemiancoding.com/sketch -->
    <title>perky-learning</title>
    <desc>Created with Sketch.</desc>
    <defs>
        <polygon id="path-1" points="1.39393939 0.698863636 2.09090909 0.698863636 2.09090909 1.39772727 1.39393939 1.39772727"></polygon>
        <polygon id="path-3" points="1.39393939 0.698863636 2.09090909 0.698863636 2.09090909 1.39772727 1.39393939 1.39772727"></polygon>
        <polygon id="path-5" points="1.39393939 0.698863636 2.09090909 0.698863636 2.09090909 1.39772727 1.39393939 1.39772727"></polygon>
        <polygon id="path-7" points="1.39393939 0.698863636 2.09090909 0.698863636 2.09090909 1.39772727 1.39393939 1.39772727"></polygon>
        <polygon id="path-9" points="1.39393939 0.698863636 2.09090909 0.698863636 2.09090909 1.39772727 1.39393939 1.39772727"></polygon>
        <polygon id="path-11" points="1.39393939 0.698863636 2.09090909 0.698863636 2.09090909 1.39772727 1.39393939 1.39772727"></polygon>
        <polygon id="path-13" points="1.39393939 0.698863636 2.09090909 0.698863636 2.09090909 1.39772727 1.39393939 1.39772727"></polygon>
        <polygon id="path-15" points="1.39393939 0.698863636 2.09090909 0.698863636 2.09090909 1.39772727 1.39393939 1.39772727"></polygon>
    </defs>
    <g id="✔--Careers" stroke="none" stroke-width="1" fill="none" fill-rule="evenodd">
        <g id="Careers__vertical" transform="translate(-746.000000, -3929.000000)">
            <g id="perks" transform="translate(80.000000, 3930.000000)">
                <g id="learning" transform="translate(665.000000, 0.000000)">
                    <g id="perky-learning">
                        <path d="M47.1367576,50.5374193 C44.711303,50.5374193 43.5933636,49.2277489 43.5933636,49.2277489 C43.5933636,49.2277489 45.0848788,47.8258284 47.1367576,47.8258284 C49.1886364,47.8258284 50.4947576,49.2277489 50.4947576,49.2277489 C50.4947576,49.2277489 49.5622121,50.5374193 47.1367576,50.5374193 Z M39.7251818,43.8171466 C39.0672424,43.8171466 38.571,44.4055898 38.6657879,45.0597261 C39.2665758,49.2249534 42.8406364,52.4243511 47.1618485,52.4243511 C51.4802727,52.4243511 55.0557273,49.2249534 55.6565152,45.0597261 C55.751303,44.4055898 55.2550606,43.8171466 54.5971212,43.8171466 L39.7251818,43.8171466 Z" id="Fill-1" fill="#11100D"></path>
                        <path d="M71.3475333,48.1043955 C66.4492303,5.343725 37.0566242,6.48007727 37.0566242,6.48007727 C37.0566242,6.48007727 7.66541212,5.343725 2.76710909,48.1043955 C2.76710909,48.1043955 -1.00210303,88.9725432 37.0566242,88.9725432 C75.1153515,88.9725432 71.3475333,48.1043955 71.3475333,48.1043955 Z" id="Stroke-3" stroke="#11100D" stroke-width="2.54939996" stroke-linecap="round" stroke-linejoin="round"></path>
                        <polyline id="Stroke-5" stroke="#11100D" stroke-width="2.54939996" stroke-linecap="round" stroke-linejoin="round" points="24.9565333 87.3260205 25.8235636 116.295316 32.4475636 117.944634"></polyline>
                        <polyline id="Stroke-7" stroke="#11100D" stroke-width="2.54939996" stroke-linecap="round" stroke-linejoin="round" points="49.6687091 87.3260205 50.5357394 116.295316 57.1597394 117.944634"></polyline>
                        <g id="Group-11" transform="translate(0.000000, 117.819537)">
                            <mask id="mask-2" fill="white">
                                <use xlink:href="#path-1"></use>
                            </mask>
                            <g id="Clip-10"></g>
                            <path d="" id="Fill-9" fill="#11100D" mask="url(#mask-2)"></path>
                        </g>
                        <g id="Group-14" transform="translate(0.000000, 117.819537)">
                            <mask id="mask-4" fill="white">
                                <use xlink:href="#path-3"></use>
                            </mask>
                            <g id="Clip-13"></g>
                            <path d="" id="Fill-12" fill="#11100D" mask="url(#mask-4)"></path>
                        </g>
                        <g id="Group-17" transform="translate(0.000000, 117.819537)">
                            <mask id="mask-6" fill="white">
                                <use xlink:href="#path-5"></use>
                            </mask>
                            <g id="Clip-16"></g>
                            <path d="" id="Fill-15" fill="#11100D" mask="url(#mask-6)"></path>
                        </g>
                        <g id="Group-20" transform="translate(0.000000, 117.819537)">
                            <mask id="mask-8" fill="white">
                                <use xlink:href="#path-7"></use>
                            </mask>
                            <g id="Clip-19"></g>
                            <path d="" id="Fill-18" fill="#11100D" mask="url(#mask-8)"></path>
                        </g>
                        <g id="Group-23" transform="translate(0.000000, 117.819537)">
                            <mask id="mask-10" fill="white">
                                <use xlink:href="#path-9"></use>
                            </mask>
                            <g id="Clip-22"></g>
                            <path d="" id="Fill-21" fill="#11100D" mask="url(#mask-10)"></path>
                        </g>
                        <g id="Group-26" transform="translate(0.000000, 117.819537)">
                            <mask id="mask-12" fill="white">
                                <use xlink:href="#path-11"></use>
                            </mask>
                            <g id="Clip-25"></g>
                            <path d="" id="Fill-24" fill="#11100D" mask="url(#mask-12)"></path>
                        </g>
                        <g id="Group-29" transform="translate(0.000000, 117.819537)">
                            <mask id="mask-14" fill="white">
                                <use xlink:href="#path-13"></use>
                            </mask>
                            <g id="Clip-28"></g>
                            <path d="" id="Fill-27" fill="#11100D" mask="url(#mask-14)"></path>
                        </g>
                        <g id="Group-32" transform="translate(0.000000, 117.819537)">
                            <mask id="mask-16" fill="white">
                                <use xlink:href="#path-15"></use>
                            </mask>
                            <g id="Clip-31"></g>
                            <path d="" id="Fill-30" fill="#11100D" mask="url(#mask-16)"></path>
                        </g>
                        <path d="M36.8243939,6.47630341 C36.8243939,6.47630341 32.7094848,30.3243261 6.65118182,32.436292" id="Stroke-33" stroke="#11100D" stroke-width="2.55219996" stroke-linecap="round" stroke-linejoin="round"></path>
                        <path d="M34.0910182,15.6543398 C34.0910182,15.6543398 44.3183515,25.293067 64.6824121,25.2511352" id="Stroke-35" stroke="#11100D" stroke-width="2.55219996" stroke-linecap="round" stroke-linejoin="round"></path>
                        <path d="M40.1663636,40.1704761 C39.4805455,40.1704761 38.9229697,39.612783 38.9229697,38.9237034 C38.9229697,38.398158 38.4964242,37.9690557 37.9709091,37.9690557 C37.4453939,37.9690557 37.0188485,38.398158 37.0188485,38.9237034 C37.0188485,39.612783 36.4626667,40.1704761 35.7754545,40.1704761 C35.0896364,40.1704761 34.5334545,39.612783 34.5334545,38.9237034 C34.5334545,37.024192 36.0751515,35.476908 37.9709091,35.476908 C39.8666667,35.476908 41.4097576,37.024192 41.4097576,38.9237034 C41.4097576,39.612783 40.8521818,40.1704761 40.1663636,40.1704761" id="Fill-37" fill="#11100D"></path>
                        <path d="M58.097303,40.1704761 C57.4114848,40.1704761 56.8539091,39.612783 56.8539091,38.9237034 C56.8539091,38.398158 56.4273636,37.9690557 55.9018485,37.9690557 C55.3777273,37.9690557 54.9497879,38.398158 54.9497879,38.9237034 C54.9497879,39.612783 54.3936061,40.1704761 53.7063939,40.1704761 C53.0205758,40.1704761 52.4643939,39.612783 52.4643939,38.9237034 C52.4643939,37.024192 54.0060909,35.476908 55.9018485,35.476908 C57.7976061,35.476908 59.340697,37.024192 59.340697,38.9237034 C59.340697,39.612783 58.7831212,40.1704761 58.097303,40.1704761" id="Fill-39" fill="#11100D"></path>
                        <path d="M36.6725939,7.18816591 C36.6725939,7.18816591 34.9956848,0.103086364 27.9130788,0.276404545" id="Stroke-41" stroke="#11100D" stroke-width="2.54939996" stroke-linecap="round" stroke-linejoin="round"></path>
                        <path d="M36.3200667,6.10506705 C36.3200667,6.10506705 36.9752182,3.33756705 39.1957636,1.30387386" id="Stroke-43" stroke="#11100D" stroke-width="2.54939996" stroke-linecap="round" stroke-linejoin="round"></path>
                        <path d="M45.5454364,36.6270977 C45.5454364,40.9390864 42.0591939,44.4362 37.757497,44.4362 C33.4571939,44.4362 29.9695576,40.9390864 29.9695576,36.6270977 C29.9695576,32.3151091 33.4571939,28.8179955 37.757497,28.8179955 C42.0591939,28.8179955 45.5454364,32.3151091 45.5454364,36.6270977 Z" id="Stroke-45" stroke="#11100D" stroke-width="2.54939996" stroke-linecap="round" stroke-linejoin="round"></path>
                        <path d="M64.9475394,36.6270977 C64.9475394,40.9390864 61.461297,44.4362 57.1596,44.4362 C52.857903,44.4362 49.3716606,40.9390864 49.3716606,36.6270977 C49.3716606,32.3151091 52.857903,28.8179955 57.1596,28.8179955 C61.461297,28.8179955 64.9475394,32.3151091 64.9475394,36.6270977 Z" id="Stroke-47" stroke="#11100D" stroke-width="2.54939996" stroke-linecap="round" stroke-linejoin="round"></path>
                        <path d="M45.5454364,36.6270977 L48.7765879,36.6270977" id="Stroke-49" stroke="#11100D" stroke-width="2.54939996" stroke-linecap="round" stroke-linejoin="round"></path>
                        <polyline id="Stroke-51" stroke="#11100D" stroke-width="2.54939996" stroke-linecap="round" stroke-linejoin="round" points="11.375103 50.2125875 11.375103 101.116417 3.09510303 101.116417"></polyline>
                        <path d="M5.10000606,96.7436273 L11.3755212,101.115718" id="Stroke-53" stroke="#11100D" stroke-width="2.54939996" stroke-linecap="round" stroke-linejoin="round"></path>
                        <path d="M29.969697,36.6270977 L4.89969697,36.6270977" id="Stroke-55" stroke="#11100D" stroke-width="2.54939996" stroke-linecap="round" stroke-linejoin="round"></path>
                        <path d="M69.216897,36.6270977 L64.9472606,36.6270977" id="Stroke-57" stroke="#11100D" stroke-width="2.54939996" stroke-linecap="round" stroke-linejoin="round"></path>
                        <path d="M23.6759212,45.4072011 C23.6759212,45.9439284 23.2424061,46.3786216 22.7071333,46.3786216 C22.1718606,46.3786216 21.7383455,45.9439284 21.7383455,45.4072011 C21.7383455,44.8704739 22.1718606,44.4357807 22.7071333,44.4357807 C23.2424061,44.4357807 23.6759212,44.8704739 23.6759212,45.4072011" id="Fill-59" fill="#11100D" opacity="0.100000001"></path>
                        <path d="M27.3952303,50.2125875 C27.3952303,50.9310193 26.8139576,51.5138716 26.0988667,51.5138716 C25.3823818,51.5138716 24.802503,50.9310193 24.802503,50.2125875 C24.802503,49.4941557 25.3823818,48.9127011 26.0988667,48.9127011 C26.8139576,48.9127011 27.3952303,49.4941557 27.3952303,50.2125875" id="Fill-61" fill="#11100D" opacity="0.100000001"></path>
                        <path d="M68.379,67.9810557 C68.379,68.6994875 67.7977273,69.280942 67.0826364,69.280942 C66.3661515,69.280942 65.7848788,68.6994875 65.7848788,67.9810557 C65.7848788,67.2626239 66.3661515,66.6811693 67.0826364,66.6811693 C67.7977273,66.6811693 68.379,67.2626239 68.379,67.9810557" id="Fill-63" fill="#11100D"></path>
                        <path d="M17.4352545,62.3458386 C17.4352545,63.0642705 16.8539818,63.645725 16.1388909,63.645725 C15.4224061,63.645725 14.8411333,63.0642705 14.8411333,62.3458386 C14.8411333,61.6274068 15.4224061,61.0459523 16.1388909,61.0459523 C16.8539818,61.0459523 17.4352545,61.6274068 17.4352545,62.3458386" id="Fill-65" fill="#11100D" opacity="0.100000001"></path>
                        <path d="M40.0533152,52.7125625 C40.0533152,53.2115511 39.6504667,53.6154943 39.1528303,53.6154943 C38.6551939,53.6154943 38.2523455,53.2115511 38.2523455,52.7125625 C38.2523455,52.2135739 38.6551939,51.8096307 39.1528303,51.8096307 C39.6504667,51.8096307 40.0533152,52.2135739 40.0533152,52.7125625" id="Fill-67" fill="#11100D" opacity="0.100000001"></path>
                        <path d="M58.060503,48.1207489 C58.060503,48.6197375 57.6576545,49.0236807 57.1600182,49.0236807 C56.6623818,49.0236807 56.2595333,48.6197375 56.2595333,48.1207489 C56.2595333,47.6217602 56.6623818,47.217817 57.1600182,47.217817 C57.6576545,47.217817 58.060503,47.6217602 58.060503,48.1207489" id="Fill-69" fill="#11100D" opacity="0.100000001"></path>
                        <path d="M70.1176606,44.4353614 C70.1176606,45.2767932 69.4374182,45.9574864 68.5996606,45.9574864 C67.761903,45.9574864 67.0816606,45.2767932 67.0816606,44.4353614 C67.0816606,43.5953273 67.761903,42.9132364 68.5996606,42.9132364 C69.4374182,42.9132364 70.1176606,43.5953273 70.1176606,44.4353614" id="Fill-71" fill="#11100D"></path>
                        <path d="M35.1201636,22.8893955 C35.1201636,23.5575091 34.5793152,24.0998273 33.9130121,24.0998273 C33.2453152,24.0998273 32.7058606,23.5575091 32.7058606,22.8893955 C32.7058606,22.2198841 33.2453152,21.6789636 33.9130121,21.6789636 C34.5793152,21.6789636 35.1201636,22.2198841 35.1201636,22.8893955" id="Fill-73" fill="#11100D" opacity="0.100000001"></path>
                        <polyline id="Stroke-75" stroke="#11100D" stroke-width="2.54939996" stroke-linecap="round" stroke-linejoin="round" points="71.3475333 48.1043955 91.5512909 56.3104523 72.4640788 87.3260205 59.3401394 81.8916568"></polyline>
                        <path d="M73.2502606,74.6626114 C73.2502606,74.6626114 85.1698364,79.4805773 85.1698364,66.6815886" id="Stroke-77" stroke="#11100D" stroke-width="2.54939996" stroke-linecap="round" stroke-linejoin="round"></path>
                        <polyline id="Stroke-79" stroke="#11100D" stroke-width="2.54939996" stroke-linecap="round" stroke-linejoin="round" points="71.4506848 44.4360602 89.8688061 51.5127534 88.2253515 54.9595489"></polyline>
                        <polygon id="Stroke-81" stroke="#11100D" stroke-width="2.54939996" stroke-linecap="round" stroke-linejoin="round" points="21.5482121 65.8804114 38.3911818 65.8804114 38.3911818 70.0414455 21.5482121 70.0735932"></polygon>
                        <path d="M25.2938667,65.3835193 L25.2938667,56.8378148" id="Stroke-83" stroke="#11100D" stroke-width="2.54939996" stroke-linecap="round" stroke-linejoin="round"></path>
                        <path d="M29.3102242,65.8804114 L29.3102242,60.4530364" id="Stroke-85" stroke="#11100D" stroke-width="2.54939996" stroke-linecap="round" stroke-linejoin="round"></path>
                    </g>
                </g>
            </g>
        </g>
    </g>
</svg>
